src/SVGs/cloudy-day-3.svg

<?xml version="1.0" encoding="utf-8"?>
<!-- (c) ammap.com | SVG weather icons -->
<svg
    version="1.1"
    xmlns="http://www.w3.org/2000/svg"
    xmlns:xlink="http://www.w3.org/1999/xlink"
    width="64"
    height="64"
    viewbox="0 0 64 64">
    <defs>
        <filter id="blur" width="200%" height="200%">
            <feGaussianBlur in="SourceAlpha" stdDeviation="3"/>
            <feOffset dx="0" dy="4" result="offsetblur"/>
            <feComponentTransfer>
                <feFuncA type="linear" slope="0.05"/>
            </feComponentTransfer>
            <feMerge> 
                <feMergeNode/>
                <feMergeNode in="SourceGraphic"/> 
            </feMerge>
        </filter>
        <style type="text/css"><![CDATA[
/*
** CLOUDS
*/
@keyframes am-weather-cloud-2 {
  0% {
    -webkit-transform: translate(0px,0px);
       -moz-transform: translate(0px,0px);
        -ms-transform: translate(0px,0px);
            transform: translate(0px,0px);
  }

  50% {
    -webkit-transform: translate(2px,0px);
       -moz-transform: translate(2px,0px);
        -ms-transform: translate(2px,0px);
            transform: translate(2px,0px);
  }

  100% {
    -webkit-transform: translate(0px,0px);
       -moz-transform: translate(0px,0px);
        -ms-transform: translate(0px,0px);
            transform: translate(0px,0px);
  }
}

.am-weather-cloud-2 {
  -webkit-animation-name: am-weather-cloud-2;
     -moz-animation-name: am-weather-cloud-2;
          animation-name: am-weather-cloud-2;
  -webkit-animation-duration: 3s;
     -moz-animation-duration: 3s;
          animation-duration: 3s;
  -webkit-animation-timing-function: linear;
     -moz-animation-timing-function: linear;
          animation-timing-function: linear;
  -webkit-animation-iteration-count: infinite;
     -moz-animation-iteration-count: infinite;
          animation-iteration-count: infinite;
}

/*
** SUN
*/
@keyframes am-weather-sun {
  0% {
    -webkit-transform: rotate(0deg);
       -moz-transform: rotate(0deg);
        -ms-transform: rotate(0deg);
            transform: rotate(0deg);
  }

  100% {
    -webkit-transform: rotate(360deg);
       -moz-transform: rotate(360deg);
        -ms-transform: rotate(360deg);
            transform: rotate(360deg);
  }
}

.am-weather-sun {
  -webkit-animation-name: am-weather-sun;
     -moz-animation-name: am-weather-sun;
      -ms-animation-name: am-weather-sun;
          animation-name: am-weather-sun;
  -webkit-animation-duration: 9s;
     -moz-animation-duration: 9s;
      -ms-animation-duration: 9s;
          animation-duration: 9s;
  -webkit-animation-timing-function: linear;
     -moz-animation-timing-function: linear;
      -ms-animation-timing-function: linear;
          animation-timing-function: linear;
  -webkit-animation-iteration-count: infinite;
     -moz-animation-iteration-count: infinite;
      -ms-animation-iteration-count: infinite;
          animation-iteration-count: infinite;
}

@keyframes am-weather-sun-shiny {
  0% {
    stroke-dasharray: 3px 10px;
    stroke-dashoffset: 0px;
  }

  50% {
    stroke-dasharray: 0.1px 10px;
    stroke-dashoffset: -1px;
  }

  100% {
    stroke-dasharray: 3px 10px;
    stroke-dashoffset: 0px;
  }
}

.am-weather-sun-shiny line {
  -webkit-animation-name: am-weather-sun-shiny;
     -moz-animation-name: am-weather-sun-shiny;
      -ms-animation-name: am-weather-sun-shiny;
          animation-name: am-weather-sun-shiny;
  -webkit-animation-duration: 2s;
     -moz-animation-duration: 2s;
      -ms-animation-duration: 2s;
          animation-duration: 2s;
  -webkit-animation-timing-function: linear;
     -moz-animation-timing-function: linear;
      -ms-animation-timing-function: linear;
          animation-timing-function: linear;
  -webkit-animation-iteration-count: infinite;
     -moz-animation-iteration-count: infinite;
      -ms-animation-iteration-count: infinite;
          animation-iteration-count: infinite;
}
        ]]></style>
    </defs>
    <g filter="url(#blur)" id="cloudy-day-3">
        <g transform="translate(20,10)">
            <g transform="translate(0,16)">
                <g class="am-weather-sun">
                    <g>
                        <line fill="none" stroke="orange" stroke-linecap="round" stroke-width="2" transform="translate(0,9)" x1="0" x2="0" y1="0" y2="3"/>
                    </g>
                    <g transform="rotate(45)">
                        <line fill="none" stroke="orange" stroke-linecap="round" stroke-width="2" transform="translate(0,9)" x1="0" x2="0" y1="0" y2="3"/>
                    </g>
                    <g transform="rotate(90)">
                        <line fill="none" stroke="orange" stroke-linecap="round" stroke-width="2" transform="translate(0,9)" x1="0" x2="0" y1="0" y2="3"/>
                    </g>
                    <g transform="rotate(135)">
                        <line fill="none" stroke="orange" stroke-linecap="round" stroke-width="2" transform="translate(0,9)" x1="0" x2="0" y1="0" y2="3"/>
                    </g>
                    <g transform="rotate(180)">
                        <line fill="none" stroke="orange" stroke-linecap="round" stroke-width="2" transform="translate(0,9)" x1="0" x2="0" y1="0" y2="3"/>
                    </g>
                    <g transform="rotate(225)">
                        <line fill="none" stroke="orange" stroke-linecap="round" stroke-width="2" transform="translate(0,9)" x1="0" x2="0" y1="0" y2="3"/>
                    </g>
                    <g transform="rotate(270)">
                        <line fill="none" stroke="orange" stroke-linecap="round" stroke-width="2" transform="translate(0,9)" x1="0" x2="0" y1="0" y2="3"/>
                    </g>
                    <g transform="rotate(315)">
                        <line fill="none" stroke="orange" stroke-linecap="round" stroke-width="2" transform="translate(0,9)" x1="0" x2="0" y1="0" y2="3"/>
                    </g>
                </g>
                <circle cx="0" cy="0" fill="orange" r="5" stroke="orange" stroke-width="2"/>
            </g>
            <g class="am-weather-cloud-2">
                <path d="M47.7,35.4c0-4.6-3.7-8.2-8.2-8.2c-1,0-1.9,0.2-2.8,0.5c-0.3-3.4-3.1-6.2-6.6-6.2c-3.7,0-6.7,3-6.7,6.7c0,0.8,0.2,1.6,0.4,2.3    c-0.3-0.1-0.7-0.1-1-0.1c-3.7,0-6.7,3-6.7,6.7c0,3.6,2.9,6.6,6.5,6.7l17.2,0C44.2,43.3,47.7,39.8,47.7,35.4z" fill="#57A0EE" stroke="white" stroke-linejoin="round" stroke-width="1.2" transform="translate(-20,-11)"/>
            </g>
        </g>
    </g>
</svg>

<?xml version="1.0" encoding="UTF-8" standalone="no"?>
<!DOCTYPE svg PUBLIC "-//W3C//DTD SVG 1.1//EN" "http://www.w3.org/Graphics/SVG/1.1/DTD/svg11.dtd">
<svg width="100%" height="100%" viewBox="0 0 64 64" version="1.1" xmlns="http://www.w3.org/2000/svg" xmlns:xlink="http://www.w3.org/1999/xlink" xml:space="preserve" xmlns:serif="http://www.serif.com/" style="fill-rule:evenodd;clip-rule:evenodd;stroke-linecap:round;">
    <g transform="matrix(1.3593,0,0,1.3593,22.4233,6.87936)">
        <g id="cloudy-day-3">
            <g>
                <g transform="matrix(1,0,0,1,0,16)">
                    <g>
                        <g transform="matrix(1,0,0,1,0,9)">
                            <path d="M0,0L0,3" style="fill:none;fill-rule:nonzero;stroke:rgb(255,165,0);stroke-width:2px;"/>
                        </g>
                        <g transform="matrix(0.707107,0.707107,-0.707107,0.707107,-6.36396,6.36396)">
                            <path d="M0,0L0,3" style="fill:none;fill-rule:nonzero;stroke:rgb(255,165,0);stroke-width:2px;"/>
                        </g>
                        <g transform="matrix(-3.82857e-16,1,-1,-3.82857e-16,-9,-3.44571e-15)">
                            <path d="M0,0L0,3" style="fill:none;fill-rule:nonzero;stroke:rgb(255,165,0);stroke-width:2px;"/>
                        </g>
                        <g transform="matrix(-0.707107,0.707107,-0.707107,-0.707107,-6.36396,-6.36396)">
                            <path d="M0,0L0,3" style="fill:none;fill-rule:nonzero;stroke:rgb(255,165,0);stroke-width:2px;"/>
                        </g>
                        <g transform="matrix(-1,-7.65714e-16,7.65714e-16,-1,6.89142e-15,-9)">
                            <path d="M0,0L0,3" style="fill:none;fill-rule:nonzero;stroke:rgb(255,165,0);stroke-width:2px;"/>
                        </g>
                        <g transform="matrix(-0.707107,-0.707107,0.707107,-0.707107,6.36396,-6.36396)">
                            <path d="M0,0L0,3" style="fill:none;fill-rule:nonzero;stroke:rgb(255,165,0);stroke-width:2px;"/>
                        </g>
                        <g transform="matrix(7.04481e-16,-1,1,7.04481e-16,9,6.34033e-15)">
                            <path d="M0,0L0,3" style="fill:none;fill-rule:nonzero;stroke:rgb(255,165,0);stroke-width:2px;"/>
                        </g>
                        <g transform="matrix(0.707107,-0.707107,0.707107,0.707107,6.36396,6.36396)">
                            <path d="M0,0L0,3" style="fill:none;fill-rule:nonzero;stroke:rgb(255,165,0);stroke-width:2px;"/>
                        </g>
                    </g>
                    <circle cx="0" cy="0" r="5" style="fill:rgb(255,165,0);stroke:rgb(255,165,0);stroke-width:2px;stroke-linecap:butt;"/>
                </g>
                <g transform="matrix(1,0,0,1,-20,-11)">
                    <path d="M47.7,35.4C47.7,30.8 44,27.2 39.5,27.2C38.5,27.2 37.6,27.4 36.7,27.7C36.4,24.3 33.6,21.5 30.1,21.5C26.4,21.5 23.4,24.5 23.4,28.2C23.4,29 23.6,29.8 23.8,30.5C23.5,30.4 23.1,30.4 22.8,30.4C19.1,30.4 16.1,33.4 16.1,37.1C16.1,40.7 19,43.7 22.6,43.8L39.8,43.8C44.2,43.3 47.7,39.8 47.7,35.4Z" style="fill:rgb(49,69,106);fill-rule:nonzero;stroke:white;stroke-width:1.2px;stroke-linecap:butt;stroke-linejoin:round;"/>
                </g>
            </g>
        </g>
    </g>
</svg>
